public/seovileo.svg

<svg width="25" height="25" viewBox="0 0 25 25" fill="none" xmlns="http://www.w3.org/2000/svg">
<path fill-rule="evenodd" clip-rule="evenodd" d="M20.1208 0.272432C18.2999 -0.49143 16.1691 0.350153 15.3617 2.15216L13.4724 6.36834L7.66941 3.02594C5.28605 1.65317 2.18555 2.43933 0.744247 4.78187C-1.59894 8.59023 1.95562 13.1822 6.33627 12.0059L11.5767 10.5988L8.20813 18.1161C7.08421 20.6243 8.22771 23.5194 10.7622 24.5826C14.9253 26.329 19.1979 22.1284 17.4181 18.0389L14.9585 12.3876C14.6454 11.6683 14.583 10.9175 14.7225 10.2157C16.4498 10.5951 17.788 12.1119 17.734 14.0025L17.7052 15.0121C17.6008 18.6642 22.5343 20.0112 24.4732 16.8599C25.5157 15.1655 24.9633 12.9869 23.2393 11.994L16.1629 7.91803C16.7145 7.49656 17.3922 7.21391 18.1537 7.13983L18.9555 7.06182C22.6786 6.69962 23.5359 1.70501 20.1208 0.272432Z" fill="white"/>
</svg>

<svg xmlns="http://www.w3.org/2000/svg" width="25" height="25" fill="none" xmlns:v="https://vecta.io/nano"><path fill-rule="evenodd" d="M20.121.272c-1.821-.764-3.952.078-4.759 1.88l-1.889 4.216-5.803-3.342A5.16 5.16 0 0 0 .744 4.782c-2.343 3.808 1.211 8.4 5.592 7.224l5.24-1.407-3.369 7.517c-1.124 2.508.02 5.403 2.554 6.467 4.163 1.746 8.436-2.454 6.656-6.544l-2.46-5.651c-.313-.719-.376-1.47-.236-2.172 1.727.379 3.066 1.896 3.012 3.787l-.029 1.01c-.104 3.652 4.829 4.999 6.768 1.848 1.043-1.694.49-3.873-1.234-4.866l-7.076-4.076a3.88 3.88 0 0 1 1.991-.778l.802-.078c3.723-.362 4.58-5.357 1.165-6.789z" fill="#fff"/></svg>
